blockchains/ethereum/assets/0x296b3Fc8e3CC768F834152586e5Ad708BFE8F163/logo.svg

<svg width="250" height="250" viewBox="0 0 250 250" fill="none" xmlns="http://www.w3.org/2000/svg">
<g clip-path="url(#clip0_50_11161)">
<g clip-path="url(#clip1_50_11161)">
<path fill-rule="evenodd" clip-rule="evenodd" d="M125 0C193.8 0 250 56.3 250 125C250 193.8 193.7 250 125 250C56.2 250 0 193.7 0 125C0 56.2 56.3 0 125 0Z" fill="url(#paint0_linear_50_11161)"/>
<path d="M79.3001 61.2031H61.3V79.2031H79.3001V61.2031Z" fill="white"/>
<path d="M117 61.2031H99V79.2031H117V61.2031Z" fill="white"/>
<path d="M154.8 61.2031H136.8V79.2031H154.8V61.2031Z" fill="white"/>
<path d="M79.3001 99H61.3V117H79.3001V99Z" fill="white"/>
<path d="M117 99H99V117H117V99Z" fill="white"/>
<path d="M79.3001 136.805H61.3V154.805H79.3001V136.805Z" fill="white"/>
<path d="M183.5 65C180.6 65 178.3 67.4 178.3 70.2C178.3 73.1 180.7 75.4 183.5 75.4C186.4 75.4 188.7 73 188.7 70.2C188.7 67.3 186.3 65 183.5 65Z" fill="white"/>
<path d="M183.5 102.805C180.6 102.805 178.3 105.205 178.3 108.005C178.3 110.905 180.7 113.205 183.5 113.205C186.4 113.205 188.7 110.805 188.7 108.005C188.7 105.105 186.3 102.805 183.5 102.805Z" fill="white"/>
<path d="M183.5 140.5C180.6 140.5 178.3 142.9 178.3 145.7C178.3 148.6 180.7 150.9 183.5 150.9C186.4 150.9 188.7 148.5 188.7 145.7C188.7 142.8 186.3 140.5 183.5 140.5Z" fill="white"/>
<path d="M183.5 178.305C180.6 178.305 178.3 180.705 178.3 183.505C178.3 186.405 180.7 188.705 183.5 188.705C186.4 188.705 188.7 186.305 188.7 183.505C188.7 180.605 186.3 178.305 183.5 178.305Z" fill="white"/>
<path d="M145.8 102.805C142.9 102.805 140.6 105.205 140.6 108.005C140.6 110.905 143 113.205 145.8 113.205C148.7 113.205 151 110.805 151 108.005C151 105.105 148.6 102.805 145.8 102.805Z" fill="white"/>
<path d="M145.8 140.5C142.9 140.5 140.6 142.9 140.6 145.7C140.6 148.6 143 150.9 145.8 150.9C148.7 150.9 151 148.5 151 145.7C151 142.8 148.6 140.5 145.8 140.5Z" fill="white"/>
<path d="M145.8 178.305C142.9 178.305 140.6 180.705 140.6 183.505C140.6 186.405 143 188.705 145.8 188.705C148.7 188.705 151 186.305 151 183.505C151 180.605 148.6 178.305 145.8 178.305Z" fill="white"/>
<path d="M108 140.5C105.1 140.5 102.8 142.9 102.8 145.7C102.8 148.6 105.2 150.9 108 150.9C110.9 150.9 113.2 148.5 113.2 145.7C113.2 142.8 110.8 140.5 108 140.5Z" fill="white"/>
<path d="M108 178.305C105.1 178.305 102.8 180.705 102.8 183.505C102.8 186.405 105.2 188.705 108 188.705C110.9 188.705 113.2 186.305 113.2 183.505C113.2 180.605 110.8 178.305 108 178.305Z" fill="white"/>
<path d="M70.2 178.305C67.3 178.305 65 180.705 65 183.505C65 186.405 67.4 188.705 70.2 188.705C73.1 188.705 75.4 186.305 75.4 183.505C75.4 180.605 73 178.305 70.2 178.305Z" fill="white"/>
</g>
</g>
<defs>
<linearGradient id="paint0_linear_50_11161" x1="29.3124" y1="44.7942" x2="220.912" y2="205.394" gradientUnits="userSpaceOnUse">
<stop stop-color="#2A63A8"/>
<stop offset="0.3804" stop-color="#213D5F"/>
<stop offset="1" stop-color="#191919"/>
</linearGradient>
<clipPath id="clip0_50_11161">
<rect width="250" height="250" fill="white"/>
</clipPath>
<clipPath id="clip1_50_11161">
<rect width="250" height="250" fill="white"/>
</clipPath>
</defs>
</svg>

<svg fill="none" height="250" viewBox="0 0 250 250" width="250" xmlns="http://www.w3.org/2000/svg" xmlns:xlink="http://www.w3.org/1999/xlink"><linearGradient id="a" gradientUnits="userSpaceOnUse" x1="29.3124" x2="220.912" y1="44.7942" y2="205.394"><stop offset="0" stop-color="#2a63a8"/><stop offset=".3804" stop-color="#213d5f"/><stop offset="1" stop-color="#191919"/></linearGradient><clipPath id="b"><path d="m0 0h250v250h-250z"/></clipPath><clipPath id="c"><path d="m0 0h250v250h-250z"/></clipPath><g clip-path="url(#b)"><g clip-path="url(#c)"><path clip-rule="evenodd" d="m125 0c68.8 0 125 56.3 125 125 0 68.8-56.3 125-125 125-68.8 0-125-56.3-125-125 0-68.8 56.3-125 125-125z" fill="url(#a)" fill-rule="evenodd"/><g fill="#fff"><path d="m79.3001 61.2031h-18.0001v18h18.0001z"/><path d="m117 61.2031h-18v18h18z"/><path d="m154.8 61.2031h-18v18h18z"/><path d="m79.3001 99h-18.0001v18h18.0001z"/><path d="m117 99h-18v18h18z"/><path d="m79.3001 136.805h-18.0001v18h18.0001z"/><path d="m183.5 65c-2.9 0-5.2 2.4-5.2 5.2 0 2.9 2.4 5.2 5.2 5.2 2.9 0 5.2-2.4 5.2-5.2 0-2.9-2.4-5.2-5.2-5.2z"/><path d="m183.5 102.805c-2.9 0-5.2 2.4-5.2 5.2 0 2.9 2.4 5.2 5.2 5.2 2.9 0 5.2-2.4 5.2-5.2 0-2.9-2.4-5.2-5.2-5.2z"/><path d="m183.5 140.5c-2.9 0-5.2 2.4-5.2 5.2 0 2.9 2.4 5.2 5.2 5.2 2.9 0 5.2-2.4 5.2-5.2 0-2.9-2.4-5.2-5.2-5.2z"/><path d="m183.5 178.305c-2.9 0-5.2 2.4-5.2 5.2 0 2.9 2.4 5.2 5.2 5.2 2.9 0 5.2-2.4 5.2-5.2 0-2.9-2.4-5.2-5.2-5.2z"/><path d="m145.8 102.805c-2.9 0-5.2 2.4-5.2 5.2 0 2.9 2.4 5.2 5.2 5.2 2.9 0 5.2-2.4 5.2-5.2 0-2.9-2.4-5.2-5.2-5.2z"/><path d="m145.8 140.5c-2.9 0-5.2 2.4-5.2 5.2 0 2.9 2.4 5.2 5.2 5.2 2.9 0 5.2-2.4 5.2-5.2 0-2.9-2.4-5.2-5.2-5.2z"/><path d="m145.8 178.305c-2.9 0-5.2 2.4-5.2 5.2 0 2.9 2.4 5.2 5.2 5.2 2.9 0 5.2-2.4 5.2-5.2 0-2.9-2.4-5.2-5.2-5.2z"/><path d="m108 140.5c-2.9 0-5.2 2.4-5.2 5.2 0 2.9 2.4 5.2 5.2 5.2 2.9 0 5.2-2.4 5.2-5.2 0-2.9-2.4-5.2-5.2-5.2z"/><path d="m108 178.305c-2.9 0-5.2 2.4-5.2 5.2 0 2.9 2.4 5.2 5.2 5.2 2.9 0 5.2-2.4 5.2-5.2 0-2.9-2.4-5.2-5.2-5.2z"/><path d="m70.2 178.305c-2.9 0-5.2 2.4-5.2 5.2 0 2.9 2.4 5.2 5.2 5.2 2.9 0 5.2-2.4 5.2-5.2 0-2.9-2.4-5.2-5.2-5.2z"/></g></g></g></svg>
